X:1
T:Title
%%score { 1 | 2 }
L:1/8
M:4/4
K:Bb
V:1 treble nm="Grand Piano"
V:2 bass 
V:1
 z4 z2[Q:1/4=104] F2 | [Fd]>[Fd] [Fd]>[Fd] c2 c2 | B6 B2 | B>B B>B A2 G2 | %4
[M:7/8] [DF]-[DF]-[DF]- [DF]3 z |[M:1/8] [DF] |[M:4/4] G2 B2 B3 G | [DF]2 [DB]2 [Fd]2 [Ge]2 | %8
 d4 c2 c2 |[M:3/4] [DB]6 |] %10
V:2
 z4 z2 [B,D]2 | [B,,B,]>[B,,B,] [B,,B,]>[B,,B,] [F,A,E]2 [F,A,E]2 | [G,B,D]6 [F,_A,D]2 | %3
 [E,G,E]>[E,G,E] [E,G,E]>[E,G,E] [E,CE]2 [E,B,E]2 |[M:7/8] [B,,B,]-[B,,B,]-[B,,B,]- [B,,B,]3 z | %5
[M:1/8] [B,,B,] |[M:4/4] [E,B,E]2 [E,G,E]2 [E,G,E]3 [E,B,E] | [B,,B,]2 [B,,F,]2 [B,,B,]2 [E,B,]2 | %8
 [F,B,F]4 [F,A,E]2 [F,E]2 |[M:3/4] [B,,F,]6 |] %10

